X:1
T: Der Vorwirt
N: Q0089
O: Mitteleuropa, Deutschland / Frankreich, Lothringen, Saarburg
R: Ballade, Mord, Grab, Auferstehen, Geist
M: 3/8
L: 1/8
K: G
D | G2B | G2c | B2A | G2
D | G2B | A2c | B2G | A2
c | B2A | GGD | A2c | B2
c | B2A | G2D | A2B | G2
c | B2A | GGD | A2c | B2
c | B2A | G2D | A2B | G2

@@@ Tune index: 1294
